X:61
T:Hopeton House.
T:Sweet Molly
N:first published by Bremner in the 1750s
N:has many 19th century Irish titles
M:2/4
L:1/8
K:EMin
d|E/E/E BE|dEBe|dBAF|DEFA|E/E/E   BE|dEBe|dBAF| {FA}B2
E::
d|Eee>f   |gefd|BdAF|DEFD|E(ee>f)   |gefd|BdFA|({FA}B2)E:|
